src/images/review/home.svg

<svg width="13" height="12" viewBox="0 0 13 12" fill="none" xmlns="http://www.w3.org/2000/svg">
<path d="M12.2399 5.77539C12.4646 5.53163 12.4429 5.15801 12.1914 4.94111L6.65187 0.159738C6.40043 -0.0571627 5.99731 -0.052619 5.75117 0.169981L0.19278 5.19603C-0.053367 5.41863 -0.065448 5.79177 0.166032 6.02912L0.305389 6.17228C0.536586 6.40963 0.910291 6.43793 1.13955 6.2353L1.55495 5.86834V11.2407C1.55495 11.5703 1.82571 11.8372 2.15961 11.8372H4.32629C4.66019 11.8372 4.93095 11.5703 4.93095 11.2407V7.48221H7.69456V11.2407C7.68976 11.5701 7.92867 11.8369 8.26258 11.8369H10.5587C10.8926 11.8369 11.1634 11.5701 11.1634 11.2405V5.94398C11.1634 5.94398 11.2781 6.04315 11.4197 6.16587C11.561 6.28835 11.8577 6.19014 12.0824 5.94614L12.2399 5.77539Z" fill="#D31342"/>
</svg>

<svg width="13" height="12" fill="none" xmlns="http://www.w3.org/2000/svg">
  <path d="M12.24 5.775a.578.578 0 0 0-.049-.834L6.651.16a.698.698 0 0 0-.9.01L.193 5.196a.574.574 0 0 0-.027.833l.14.143c.23.238.604.266.834.063l.415-.367v5.373a.6.6 0 0 0 .605.596h2.166a.6.6 0 0 0 .605-.596V7.482h2.764v3.759c-.005.33.234.596.568.596h2.296a.6.6 0 0 0 .604-.596V5.944l.257.222c.141.122.438.024.662-.22l.158-.17Z" fill="#D31342"/>
</svg>
